X:1
T:Title
%%score { 1 | 2 }
L:1/8
M:6/8
K:E
V:1 treble nm="Grand Piano"
V:2 bass 
V:1
 z3 z2[Q:1/4=100] G | B2 B [FA]2 [FA] | G2 F E2 E | [DF]3 [EG]3 | [DF]3- [DF]2 G | %5
 B2 B [CEA]2 [CEA] | [B,EG]2 [A,DF] [G,E]2 [CEA] | [B,EG]3 [A,B,F]3 | %8
[M:5/8] [G,B,E]-[G,B,E]- [G,B,E]3 |[M:1/8] [G,B,E] |[M:3/4] [DF]3 [EG]3 | [DF]4- [DF][DF] | G3 A3 | %13
 G4- GG | B2 B [CEA]2 [CEA] | [B,EG]2 [A,DF] [G,E]2 [CEA] | [B,EG]3 [A,B,F]3 | %17
[M:5/8] [G,B,E]-[G,B,E]- [G,B,E]3 |] %18
V:2
 z3 z2 [E,B,E] | [E,G,E]2 [E,G,E] [B,,B,]2 [B,,B,] | [E,B,E]2 [E,A,B,] [E,G,B,]2 [E,G,B,] | %3
 [B,,B,]3 [B,,B,]3 | [B,,B,]3- [B,,B,]2 [E,B,E] | [E,G,E]2 [E,G,E] A,,2 A,, | B,,2 B,, C,2 A,, | %7
 B,,3 B,,3 |[M:5/8] E,-E,- E,3 |[M:1/8] E, |[M:3/4] [B,,B,]3 [B,,B,]3 | [B,,B,]4- [B,,B,][B,,B,] | %12
 [E,B,E]3 [E,CE]3 | [E,B,E]4- [E,B,E][E,B,E] | [E,G,E]2 [E,G,E] A,,2 A,, | B,,2 B,, C,2 A,, | %16
 B,,3 B,,3 |[M:5/8] E,-E,- E,3 |] %18

